WordPressTheme/assets/images/common/whale-right-gray.svg

<svg width="666" height="594" fill="none" xmlns="http://www.w3.org/2000/svg"><path d="M608.509 267.682a19.802 19.802 0 00-2.669-9.514c-4.722-8.226-15.11-13.461-30.852-15.561-9.109-1.215-17.674-2.704-25.456-4.424a281.266 281.266 0 00-72.722-6.483 583.207 583.207 0 00-61.383 5.567c-4.311.655-9.318 1.454-14.869 2.343-41.223 6.581-125.092 19.969-177.185 9.649-7.077-13.361-8.296-25.299-3.62-35.516 10.154-22.191 44.533-32.587 56.98-35.687 14.734 22.511 33.463 36.364 55.713 41.201 41.385 8.994 79.504-16.629 81.107-17.721a6.947 6.947 0 00.203-11.319 6.944 6.944 0 00-4.12-1.358 21.8 21.8 0 01-10.529-3.587 45.127 45.127 0 01-16.405-17.365c-14.182-26.13-34.654-35.871-46.413-39.439 23.933-57.325-7.186-94.793-8.588-96.43l-.191-.204c-7.505-8.085-3.284-22.74-3.245-22.864a6.943 6.943 0 00-9.649-8.286c-33.053 15.822-52.734 45.299-56.926 85.238a171.568 171.568 0 001.591 45.475 270.763 270.763 0 00-47.834 1.027c-6.278.616-125.46 13.393-178.355 107.588-23.28 41.457-25.457 91.231-5.826 133.142 16.013 34.193 42.485 60.506 78.718 78.35a142.121 142.121 0 00-25.742 38.078c-22.416 48.564-69.8 41.439-71.792 41.112a6.946 6.946 0 00-5.93 11.893c22.524 21.309 51.26 33.863 79.204 31.888 53.023-3.746 96.425-49.552 112.612-69.264a174.1 174.1 0 0122.116-22.708c.302.03.606.041.91.031 33.707-2.149 76.936.185 77.264.206 1.142.08 2.258.135 3.396.205a104.818 104.818 0 00-31.215 34.984c-11.154 20.01-39.731 61.794-83.945 62.091a56.397 56.397 0 0021.921-52.387 6.95 6.95 0 00-2.528-4.737 6.957 6.957 0 00-5.15-1.518 6.94 6.94 0 00-5.93 5.051 6.958 6.958 0 00-.196 2.732 43.904 43.904 0 01-6.844 29.589 46.832 46.832 0 01-25.697 18.236 6.947 6.947 0 00-5.501 6.571 6.942 6.942 0 005.068 6.911 91.911 91.911 0 0024.824 3.529c51.293 0 83.584-46.836 96.111-69.314a89.783 89.783 0 0130.716-32.82c4.867-3 9.973-5.595 15.266-7.758.082-.035.149-.086.229-.123 2.172.026 4.346.057 6.494.057 140.819 0 225.949-58.215 257.519-84.879a41.703 41.703 0 0126.858-9.854h17.194a36.05 36.05 0 0020.303-5.933c15.311-10.338 13.186-27.015 9.413-35.838.263-10.616-1.425-60.486-54.423-79.853zM183.603 496.4c-11.73 14.282-53.803 61.134-102.752 64.216-18.92 1.191-37.123-4.276-54.327-16.272 19.858-2.35 49.454-12.379 66.386-49.065.187-.427 19.103-42.87 48.715-50.272a6.946 6.946 0 00-3.367-13.476 60.91 60.91 0 00-20.813 10.018c-36.08-16.44-62.204-41.405-77.601-74.285-17.738-37.863-15.734-82.89 5.358-120.448C94.77 158.539 211.696 146.353 212.87 146.242c.031 0 .057-.014.088-.019.031-.004.06 0 .088 0 .296-.034 29.6-3.502 53.964-.018a6.949 6.949 0 007.735-5.266 6.946 6.946 0 00-.038-3.387 156.617 156.617 0 01-3.168-50.58c3.264-30.232 15.914-52.81 37.661-67.302a32.697 32.697 0 007.986 21.461c1.993 2.423 28.889 36.68 2.997 89.184a6.937 6.937 0 00.17 6.468 6.94 6.94 0 005.429 3.52c.275.024 27.675 2.862 44.721 34.239a59.01 59.01 0 0021.509 22.672c.074.041.147.087.221.132-13.37 6.107-34.978 13.139-56.924 8.327-19.708-4.312-36.32-17.45-49.369-39.064a6.944 6.944 0 00-7.228-3.233c-2.283.427-56.138 10.905-71.57 44.561-5.132 11.215-5.444 23.467-.961 36.563a51.935 51.935 0 01-18.858-11.478 36.748 36.748 0 01-9.004-14.219 6.951 6.951 0 00-3.457-4.062 6.96 6.96 0 00-2.617-.737 6.942 6.942 0 00-7.462 6.429c-.065.913.051 1.83.342 2.698a50.42 50.42 0 0012.301 19.632c39.597 40.223 160.417 20.928 225.327 10.562 5.508-.88 10.47-1.673 14.758-2.321a569.22 569.22 0 0159.897-5.424 267.324 267.324 0 0169.124 6.159c8.165 1.804 17.12 3.364 26.617 4.631 14.504 1.934 18.454 5.487 21.453 11.228a46.952 46.952 0 01-10.043 2.052c-5.529.54-11.104.41-16.602-.386a192.926 192.926 0 00-106.188 16.867 172.438 172.438 0 00-59.24 47.45c-15.081 18.526-57.072 61.675-121.091 62.186a6.941 6.941 0 00-6.801 6.971 6.943 6.943 0 006.857 6.917h.057c69.917-.556 115.429-47.255 131.748-67.306a158.679 158.679 0 0154.468-43.688 178.552 178.552 0 0198.336-15.632 83.228 83.228 0 0019.949.43 55.729 55.729 0 0015.312-3.568c33.911 11.354 43.905 36.542 46.721 53.006a76.482 76.482 0 00-40.763-13.103h-.082c-77.113-6.722-141.409 52.128-146.375 56.798-57.394 46.202-150.891 57.893-151.823 58.008a9.958 9.958 0 00-.411.062l-48.418 8.772c-2.603.394-23.597 4.192-51.675 27.557a186.596 186.596 0 00-24.935 25.409zm396.308-107.601a312.654 312.654 0 01-60.613 39.308 151.127 151.127 0 0013.987-28.959 6.945 6.945 0 00-9.442-8.688 6.939 6.939 0 00-3.598 3.911c-13.961 38.117-32.464 47.659-32.928 47.889-.061.028-.11.072-.17.1a390.521 390.521 0 01-38.924 12.774 107.293 107.293 0 0018.709-35.364c12.135-37.193 25.251-49.798 27.189-51.509a225.318 225.318 0 0148.382-25.181 117.28 117.28 0 00-10.844 19.388 6.76 6.76 0 00-.233 5.341 6.756 6.756 0 003.723 3.838 8.046 8.046 0 009.181-3.49c11.656-25.943 24.409-31.946 26.456-32.771a134.212 134.212 0 0135.559-1.717c.252.023.528.029.784.027h.187a81.823 81.823 0 00-9.673 22.63 84.118 84.118 0 01-17.732 32.473zm-201.293 79.038a65.48 65.48 0 0010.448-16.641c.033-.078.067-.16.098-.238.07-.174 6.761-16.863 16.218-27.37a262.958 262.958 0 0056.857-30.566 239.003 239.003 0 00-8.508 22.432c-12.33 37.801-34.571 46.101-36.893 46.875a434.843 434.843 0 01-38.22 5.514v-.006zm-141.755.015c15.206-9.011 25.101-10.628 25.417-10.676.047 0 .09-.026.138-.032.047-.007.115-.001.174-.017l44.303-8.027a61 61 0 01-17.834 19.464c-10.189-.431-30.973-1.131-52.198-.706v-.006zm72.058 1.769a73.142 73.142 0 0014.617-23.171 434.038 434.038 0 0059.535-14.781 136.205 136.205 0 00-6.775 14.054c-7.263 16.452-18.944 22.48-22.171 23.882-14.41.663-29.47.723-45.21.022l.004-.006zm336.828-97.753a22.25 22.25 0 01-12.523 3.554h-17.204a55.052 55.052 0 00-11.402 1.232 92.905 92.905 0 006.414-16.664c3.9-14.165 9.374-21.207 11.759-23.757a60.343 60.343 0 0127.314 16.629c1.228 2.87 4.693 12.897-4.362 19.013l.004-.007z" fill="#0D2936" fill-opacity=".1"/></svg>

<svg width="666" height="594" viewBox="0 0 666 594" fill="none" xmlns="http://www.w3.org/2000/svg">
<path d="M608.509 267.682C608.438 264.336 607.519 261.063 605.84 258.168C601.118 249.942 590.73 244.707 574.988 242.607C565.879 241.392 557.314 239.903 549.532 238.183C525.676 232.872 501.23 230.692 476.81 231.7C456.266 232.472 435.776 234.331 415.427 237.267C411.116 237.922 406.109 238.721 400.558 239.61C359.335 246.191 275.466 259.579 223.373 249.259C216.296 235.898 215.077 223.96 219.753 213.743C229.907 191.552 264.286 181.156 276.733 178.056C291.467 200.567 310.196 214.42 332.446 219.257C373.831 228.251 411.95 202.628 413.553 201.536C414.777 200.698 415.701 199.491 416.189 198.091C416.677 196.691 416.705 195.171 416.267 193.754C415.829 192.337 414.949 191.097 413.756 190.217C412.563 189.336 411.119 188.86 409.636 188.859C405.875 188.594 402.248 187.358 399.107 185.272C392.178 181.062 386.511 175.064 382.702 167.907C368.52 141.777 348.048 132.036 336.289 128.468C360.222 71.1433 329.103 33.6751 327.701 32.0389L327.51 31.8336C320.005 23.7491 324.226 9.09317 324.265 8.97C324.658 7.67984 324.667 6.30313 324.29 5.00795C323.914 3.71277 323.169 2.55518 322.146 1.67651C321.122 0.797836 319.866 0.236109 318.528 0.0599173C317.191 -0.116274 315.832 0.100694 314.616 0.684326C281.563 16.5063 261.882 45.9825 257.69 85.9224C256.199 101.084 256.734 116.377 259.281 131.397C243.337 130.327 227.33 130.671 211.447 132.424C205.169 133.04 85.9879 145.817 33.0918 240.012C9.81144 281.469 7.63532 331.243 27.2656 373.154C43.2785 407.347 69.7512 433.66 105.984 451.504C95.3938 462.716 86.6995 475.577 80.2417 489.582C57.8256 538.146 10.4417 531.021 8.45034 530.694C6.98195 530.446 5.47267 530.676 4.14517 531.351C2.81767 532.026 1.74228 533.11 1.07766 534.443C0.413043 535.775 0.1944 537.286 0.453993 538.753C0.713586 540.219 1.43767 541.563 2.5194 542.587C25.0443 563.896 53.7793 576.45 81.7239 574.475C134.747 570.729 178.149 524.923 194.336 505.211C201.002 496.985 208.405 489.384 216.452 482.503C216.754 482.533 217.058 482.544 217.362 482.534C251.069 480.385 294.298 482.719 294.626 482.74C295.768 482.82 296.884 482.875 298.022 482.945C285.109 492.1 274.437 504.06 266.807 517.929C255.653 537.939 227.076 579.723 182.862 580.02C190.823 574.007 197.046 565.99 200.897 556.787C204.748 547.584 206.089 537.524 204.783 527.633C204.697 526.715 204.43 525.824 203.996 525.01C203.562 524.197 202.97 523.478 202.255 522.896C201.54 522.314 200.717 521.88 199.833 521.619C198.948 521.358 198.021 521.276 197.105 521.378C196.188 521.479 195.301 521.762 194.496 522.209C193.69 522.657 192.981 523.261 192.411 523.985C191.841 524.71 191.42 525.54 191.175 526.429C190.929 527.318 190.863 528.246 190.979 529.161C192.29 539.524 189.864 550.015 184.135 558.75C177.933 567.614 168.853 574.058 158.438 576.986C156.918 577.308 155.551 578.131 154.553 579.322C153.556 580.513 152.987 582.004 152.937 583.557C152.887 585.11 153.359 586.634 154.278 587.887C155.197 589.14 156.509 590.049 158.005 590.468C166.08 592.773 174.432 593.96 182.829 593.997C234.122 593.997 266.413 547.161 278.94 524.683C286.23 511.316 296.8 500.021 309.656 491.863C314.523 488.863 319.629 486.268 324.922 484.105C325.004 484.07 325.071 484.019 325.151 483.982C327.323 484.008 329.497 484.039 331.645 484.039C472.464 484.039 557.594 425.824 589.164 399.16C596.675 392.811 606.188 389.321 616.022 389.306H633.216C640.425 389.403 647.497 387.336 653.519 383.373C668.83 373.035 666.705 356.358 662.932 347.535C663.195 336.919 661.507 287.049 608.509 267.682ZM183.603 496.4C171.873 510.682 129.8 557.534 80.8514 560.616C61.9315 561.807 43.7281 556.34 26.5244 544.344C46.3825 541.994 75.9777 531.965 92.9104 495.279C93.0972 494.852 112.013 452.409 141.625 445.007C143.398 444.548 144.919 443.407 145.856 441.832C146.792 440.258 147.068 438.377 146.624 436.599C146.18 434.822 145.052 433.292 143.485 432.342C141.918 431.393 140.039 431.101 138.258 431.531C130.745 433.512 123.68 436.913 117.445 441.549C81.3647 425.109 55.241 400.144 39.8439 367.264C22.1065 329.401 24.1102 284.374 45.2021 246.816C94.7704 158.539 211.696 146.353 212.87 146.242C212.901 146.242 212.927 146.228 212.958 146.223C212.989 146.219 213.018 146.223 213.046 146.223C213.342 146.189 242.646 142.721 267.01 146.205C268.145 146.366 269.302 146.243 270.379 145.848C271.455 145.454 272.417 144.799 273.179 143.942C273.94 143.086 274.479 142.054 274.745 140.939C275.012 139.824 274.999 138.66 274.707 137.552C270.912 120.975 269.842 103.892 271.539 86.9715C274.803 56.7399 287.453 34.1616 309.2 19.6699C309.188 27.5525 312.024 35.174 317.186 41.1314C319.179 43.5539 346.075 77.8113 320.183 130.315C319.684 131.326 319.439 132.443 319.469 133.57C319.498 134.697 319.802 135.8 320.353 136.783C320.904 137.766 321.686 138.601 322.632 139.214C323.578 139.827 324.659 140.201 325.782 140.303C326.057 140.327 353.457 143.165 370.503 174.542C375.505 183.895 382.935 191.727 392.012 197.214C392.086 197.255 392.159 197.301 392.233 197.346C378.863 203.453 357.255 210.485 335.309 205.673C315.601 201.361 298.989 188.223 285.94 166.609C285.208 165.398 284.124 164.44 282.832 163.862C281.54 163.284 280.103 163.114 278.712 163.376C276.429 163.803 222.574 174.281 207.142 207.937C202.01 219.152 201.698 231.404 206.181 244.5C199.145 242.07 192.714 238.155 187.323 233.022C183.262 229.043 180.18 224.175 178.319 218.803C178.039 217.932 177.589 217.124 176.996 216.427C176.403 215.73 175.678 215.157 174.862 214.741C174.047 214.326 173.157 214.075 172.245 214.004C171.332 213.934 170.415 214.044 169.545 214.329C168.675 214.615 167.87 215.069 167.177 215.667C166.483 216.264 165.915 216.993 165.504 217.811C165.093 218.629 164.848 219.52 164.783 220.433C164.718 221.346 164.834 222.263 165.125 223.131C167.646 230.541 171.857 237.262 177.426 242.763C217.023 282.986 337.843 263.691 402.753 253.325C408.261 252.445 413.223 251.652 417.511 251.004C437.367 248.142 457.361 246.331 477.408 245.58C500.619 244.621 523.856 246.691 546.532 251.739C554.697 253.543 563.652 255.103 573.149 256.37C587.653 258.304 591.603 261.857 594.602 267.598C591.339 268.646 587.972 269.335 584.559 269.65C579.03 270.19 573.455 270.06 567.957 269.264C531.678 264.71 494.851 270.56 461.769 286.131C438.743 297.352 418.506 313.561 402.529 333.581C387.448 352.107 345.457 395.256 281.438 395.767C279.617 395.804 277.883 396.556 276.611 397.86C275.339 399.165 274.63 400.916 274.637 402.738C274.644 404.56 275.367 406.306 276.65 407.6C277.932 408.894 279.672 409.632 281.494 409.655H281.551C351.468 409.099 396.98 362.4 413.299 342.349C427.986 323.923 446.592 308.999 467.767 298.661C498.4 284.231 532.505 278.81 566.103 283.029C572.711 283.972 579.409 284.116 586.052 283.459C591.299 282.999 596.455 281.798 601.364 279.891C635.275 291.245 645.269 316.433 648.085 332.897C636.022 324.738 621.88 320.191 607.322 319.794H607.24C530.127 313.072 465.831 371.922 460.865 376.592C403.471 422.794 309.974 434.485 309.042 434.6C308.907 434.617 308.767 434.639 308.631 434.662L260.213 443.434C257.61 443.828 236.616 447.626 208.538 470.991C199.436 478.646 191.086 487.155 183.603 496.4ZM579.911 388.799C561.294 404.2 540.953 417.39 519.298 428.107C524.977 418.979 529.666 409.271 533.285 399.148C533.918 397.419 533.839 395.509 533.064 393.838C532.289 392.167 530.883 390.873 529.153 390.239C528.297 389.926 527.387 389.784 526.476 389.821C525.565 389.859 524.67 390.076 523.843 390.46C522.172 391.235 520.878 392.641 520.245 394.371C506.284 432.488 487.781 442.03 487.317 442.26C487.256 442.288 487.207 442.332 487.147 442.36C474.405 447.296 461.412 451.56 448.223 455.134C456.622 444.623 462.968 432.626 466.932 419.77C479.067 382.577 492.183 369.972 494.121 368.261C509.169 357.939 525.415 349.484 542.503 343.08C538.283 349.185 534.652 355.677 531.659 362.468C531.259 363.296 531.031 364.196 530.991 365.115C530.951 366.033 531.099 366.95 531.426 367.809C531.753 368.669 532.251 369.452 532.892 370.112C533.532 370.772 534.3 371.294 535.149 371.647C536.85 372.161 538.673 372.098 540.334 371.467C541.995 370.835 543.4 369.671 544.33 368.157C555.986 342.214 568.739 336.211 570.786 335.386C582.51 333.237 594.468 332.66 606.345 333.669C606.597 333.692 606.873 333.698 607.129 333.696H607.316C602.969 340.709 599.708 348.338 597.643 356.326C594.215 368.332 588.159 379.425 579.911 388.799ZM378.618 467.837C382.918 462.847 386.44 457.237 389.066 451.196C389.099 451.118 389.133 451.036 389.164 450.958C389.234 450.784 395.925 434.095 405.382 423.588C425.518 415.773 444.614 405.507 462.239 393.022C459.029 400.352 456.19 407.839 453.731 415.454C441.401 453.255 419.16 461.555 416.838 462.329C404.723 464.631 392.001 466.513 378.618 467.843V467.837ZM236.863 467.852C252.069 458.841 261.964 457.224 262.28 457.176C262.327 457.176 262.37 457.15 262.418 457.144C262.465 457.137 262.533 457.143 262.592 457.127L306.895 449.1C302.442 456.812 296.355 463.456 289.061 468.564C278.872 468.133 258.088 467.433 236.863 467.858V467.852ZM308.921 469.621C315.209 462.887 320.169 455.025 323.538 446.45C343.707 442.933 363.602 437.994 383.073 431.669C380.548 436.22 378.286 440.913 376.298 445.723C369.035 462.175 357.354 468.203 354.127 469.605C339.717 470.268 324.657 470.328 308.917 469.627L308.921 469.621ZM645.749 371.868C642.022 374.275 637.661 375.512 633.226 375.422H616.022C612.189 375.435 608.368 375.847 604.62 376.654C607.288 371.318 609.436 365.738 611.034 359.99C614.934 345.825 620.408 338.783 622.793 336.233C633.228 339.219 642.664 344.964 650.107 352.862C651.335 355.732 654.8 365.759 645.745 371.875L645.749 371.868Z" fill="#0D2936" fill-opacity="0.1"/>
</svg>
